assets/regular/cell-signal-full.svg

<svg id="Flat" xmlns="http://www.w3.org/2000/svg" viewBox="0 0 256 256">
  <path d="M198.12305,28.53186a15.95374,15.95374,0,0,0-17.4375,3.46826L74.34424,138.34241l-.00189.00195L16.001,196.68616a15.99933,15.99933,0,0,0,11.3125,27.314H192a16.018,16.018,0,0,0,16-16V43.3136A15.95222,15.95222,0,0,0,198.12305,28.53186ZM88,147.31653l24-23.999v84.68018l-24-.00049ZM72,207.9967l-44.68091-.00146L72,163.316ZM128,107.318l24-23.999V207.99914l-24-.001Zm64,100.68213-24-.00049V67.31946L192,43.32Z"/>
</svg>

<svg xmlns="http://www.w3.org/2000/svg" viewBox="0 0 256 256"><path d="M198.1,28.5A15.9,15.9,0,0,0,180.7,32L74.4,138.3h-.1L16,196.7A16,16,0,0,0,27.3,224H192a16,16,0,0,0,16-16V43.3A16,16,0,0,0,198.1,28.5ZM88,147.3l24-24V208H88ZM72,208H27.3L72,163.3Zm56-100.7,24-24V208H128ZM192,208H168V67.3l24-24Z"/></svg>
